packages/amis-editor/src/icons/form/uuid.svg

<svg width="16" height="16" xmlns="http://www.w3.org/2000/svg"><g fill="none" fill-rule="evenodd" stroke="currentColor"><path stroke-linejoin="round" d="M1.5 3h13v10h-13z"/><path d="M4.218 9.456c.376 0 .668-.096.876-.288.208-.196.312-.48.312-.852V6.544h-.468v1.78c0 .248-.06.428-.172.548-.116.116-.3.176-.548.176-.252 0-.436-.06-.548-.176-.116-.12-.172-.3-.172-.548v-1.78H3.03v1.772c0 .372.104.656.316.856.2.188.492.284.872.284Zm3.136 0c.376 0 .668-.096.876-.288.208-.196.312-.48.312-.852V6.544h-.468v1.78c0 .248-.06.428-.172.548-.116.116-.3.176-.548.176-.252 0-.436-.06-.548-.176-.116-.12-.172-.3-.172-.548v-1.78h-.468v1.772c0 .372.104.656.316.856.2.188.492.284.872.284ZM9.77 9.4V6.544h-.468V9.4h.468Zm1.804 0c.464 0 .812-.128 1.052-.384.228-.244.344-.592.344-1.044 0-.456-.116-.804-.344-1.044-.24-.256-.588-.384-1.052-.384H10.53V9.4h1.044Zm-.088-.4h-.488V6.944h.488c.356 0 .616.08.78.244.16.16.24.424.24.784 0 .352-.08.612-.24.78-.164.164-.424.248-.78.248Z" stroke-width=".2" fill="currentColor" fill-rule="nonzero"/></g></svg>

<?xml version="1.0" encoding="UTF-8"?>
<svg width="16px" height="16px" viewBox="0 0 16 16" version="1.1" xmlns="http://www.w3.org/2000/svg" xmlns:xlink="http://www.w3.org/1999/xlink">
    <g id="UUID" stroke="none" stroke-width="1" fill="none" fill-rule="evenodd">
        <rect id="矩形" stroke="currentColor" stroke-linejoin="round" x="1.5" y="3" width="13" height="10"></rect>
        <path d="M4.218,9.456 C4.594,9.456 4.886,9.36 5.094,9.168 C5.302,8.972 5.406,8.688 5.406,8.316 L5.406,6.544 L4.938,6.544 L4.938,8.324 C4.938,8.572 4.878,8.752 4.766,8.872 C4.65,8.988 4.466,9.048 4.218,9.048 C3.966,9.048 3.782,8.988 3.67,8.872 C3.554,8.752 3.498,8.572 3.498,8.324 L3.498,6.544 L3.03,6.544 L3.03,8.316 C3.03,8.688 3.134,8.972 3.346,9.172 C3.546,9.36 3.838,9.456 4.218,9.456 Z M7.354,9.456 C7.73,9.456 8.022,9.36 8.23,9.168 C8.438,8.972 8.542,8.688 8.542,8.316 L8.542,6.544 L8.074,6.544 L8.074,8.324 C8.074,8.572 8.014,8.752 7.902,8.872 C7.786,8.988 7.602,9.048 7.354,9.048 C7.102,9.048 6.918,8.988 6.806,8.872 C6.69,8.752 6.634,8.572 6.634,8.324 L6.634,6.544 L6.166,6.544 L6.166,8.316 C6.166,8.688 6.27,8.972 6.482,9.172 C6.682,9.36 6.974,9.456 7.354,9.456 Z M9.77,9.4 L9.77,6.544 L9.302,6.544 L9.302,9.4 L9.77,9.4 Z M11.574,9.4 C12.038,9.4 12.386,9.272 12.626,9.016 C12.854,8.772 12.97,8.424 12.97,7.972 C12.97,7.516 12.854,7.168 12.626,6.928 C12.386,6.672 12.038,6.544 11.574,6.544 L10.53,6.544 L10.53,9.4 L11.574,9.4 Z M11.486,9 L10.998,9 L10.998,6.944 L11.486,6.944 C11.842,6.944 12.102,7.024 12.266,7.188 C12.426,7.348 12.506,7.612 12.506,7.972 C12.506,8.324 12.426,8.584 12.266,8.752 C12.102,8.916 11.842,9 11.486,9 Z" stroke="currentColor" stroke-width="0.2" fill="currentColor" fill-rule="nonzero"></path>
    </g>
</svg>
